src/assets/images/tree.svg

<svg viewBox="0 0 81 66" fill="currentColor"
  xmlns="http://www.w3.org/2000/svg">
  <path fill-rule="evenodd" clip-rule="evenodd" d="M27.4075 43.5403C28.7792 43.6203 29.9088 44.7402 30.0702 46.0201C30.7157 50.7397 30.7157 53.1395 30.1509 57.8591C29.9088 59.1389 28.7792 60.2588 27.4882 60.3388C23.5345 60.5788 20.5491 60.7388 17.6444 60.7388C14.7396 60.7388 11.7542 60.5788 7.88118 60.3388C6.59019 60.2588 5.37987 59.1389 5.2185 57.8591C4.573 53.1395 4.573 50.7397 5.2185 46.0201C5.37987 44.7402 6.5095 43.6203 7.8005 43.5403C15.6272 42.9804 19.5002 42.9804 27.4075 43.5403ZM21.5862 52.4322C21.9687 52.2133 21.9687 51.6659 21.5862 51.4469L16.1038 48.3089C15.7213 48.09 15.2431 48.3636 15.2431 48.8015V55.0776C15.2431 55.5155 15.7213 55.7892 16.1038 55.5702L21.5862 52.4322Z" />
  <g filter="url(#filter0_d_11_2)">
    <path d="M34.5177 1.75366C34.282 3.02336 34.2383 7.00599 34.4431 8.54544C34.8674 11.7353 36.1286 15.0902 37.7585 17.365L38.2086 17.9931L37.6999 18.6915C36.2798 20.6406 35.2781 22.9212 34.9761 24.8931C34.7752 26.2047 34.8825 28.7881 35.1854 29.9379C35.3161 30.4334 35.411 30.8515 35.3964 30.8668C35.3819 30.8821 35.0365 30.6719 34.6288 30.3995C34.2211 30.1272 33.3271 29.593 32.6419 29.2126C31.4315 28.5403 31.3734 28.4889 30.6017 27.4098C28.7011 24.7521 27.9459 22.2484 27.9459 18.6059C27.9459 16.5022 28.1357 15.1111 28.6722 13.2812C28.6974 13.1953 28.721 13.1152 28.743 13.0406C28.9768 12.2455 29.0308 12.0618 28.9688 11.9917C28.9501 11.9707 28.921 11.9599 28.8831 11.9458C28.8712 11.9414 28.8585 11.9367 28.845 11.9312C28.6318 11.8452 28.3743 12.4406 27.888 14.1441C27.3641 15.9787 27.1799 17.4089 27.1794 19.6452C27.1787 22.5262 27.5869 24.497 28.6185 26.5931C28.8392 27.0417 28.994 27.4088 28.9625 27.4088C28.8024 27.4088 27.0513 26.6204 26.1185 26.1283C24.7193 25.3903 24.2136 25.0138 23.0677 23.8571C21.3828 22.1566 20.3636 20.6004 19.4837 18.3846C19.0787 17.3649 18.3486 14.7628 18.3486 14.3392C18.3486 14.2565 18.5422 14.0918 18.7787 13.9733C20.5122 13.1048 23.0415 10.7292 24.1819 8.89852C25.4803 6.81427 26.1314 4.94155 26.4562 2.35661C26.5058 1.96159 26.4831 1.84411 26.3571 1.84411C26.2405 1.84411 26.156 2.11508 26.0628 2.78661C25.7018 5.39099 24.3175 8.1369 22.3009 10.2489C20.9085 11.7071 18.4898 13.3761 18.2042 13.0758C17.9866 12.8469 17.9612 8.81653 18.1657 6.96911C18.2686 6.04059 18.3819 5.16598 18.4174 5.02548C18.4688 4.82252 18.4219 4.75801 18.1885 4.71108C18.1755 4.70846 18.163 4.70582 18.1509 4.70329C18.0771 4.68779 18.0215 4.67612 17.9753 4.69291C17.8346 4.74406 17.7807 5.05915 17.5625 6.33407L17.526 6.54704C17.1736 8.60344 17.1432 13.2139 17.4704 14.9882C17.7486 16.4971 18.2999 18.4779 18.7084 19.4365C18.889 19.8602 19.0367 20.224 19.0367 20.2451C19.0367 20.3303 18.0859 19.9226 17.408 19.5466C16.1346 18.8404 14.9912 17.9367 13.9839 16.8405C12.0441 14.7292 10.9487 12.4158 10.6086 9.71249C10.5517 9.26004 10.4787 9.0794 10.3529 9.0794C10.1094 9.0794 10.2309 10.1557 10.6795 11.9735C11.4565 15.1219 13.1884 17.6992 15.883 19.717C16.6822 20.3154 18.9337 21.5241 19.5128 21.6655C19.7111 21.714 19.9181 21.9215 20.108 22.2621C20.5788 23.1069 21.8172 24.653 22.724 25.5281C23.9978 26.7574 25.2577 27.5787 27.4981 28.6401C28.6155 29.1696 29.5658 29.6382 29.61 29.6815C29.654 29.7248 28.9315 29.7709 28.0045 29.7838C27.0773 29.7967 25.9576 29.8631 25.5161 29.9316L25.4515 29.9416C23.5666 30.2336 22.987 30.3234 22.4322 30.2368C22.1859 30.1984 21.9445 30.1252 21.5959 30.0196L21.5691 30.0114C20.9751 29.8314 20.1552 29.5249 19.7469 29.3302C17.1758 28.1044 14.6951 25.3833 13.6881 22.6844C13.5193 22.2319 13.3119 21.8617 13.2273 21.8617C13.0132 21.8617 13.0283 21.9597 13.4081 23.0293C14.4413 25.9387 16.4875 28.4357 19.1422 30.0265L20.006 30.5441L19.1486 30.5403C18.6771 30.5382 17.7494 30.4358 17.0872 30.3127C12.0761 29.381 8.32718 25.7191 5.79254 19.2804C5.36364 18.191 4.55585 15.683 4.41984 15.0184C4.33062 14.5827 4.28062 14.5586 3.9742 14.8026C3.77064 14.9648 3.7781 15.0296 4.17179 16.5173C5.29243 20.7511 6.86089 24.1427 8.92592 26.7968L9.30826 27.2882H8.82018C7.43016 27.2882 5.52465 26.6867 4.07752 25.7912C3.08452 25.1768 1.24381 23.2942 0.531425 22.1645C0.078785 21.4465 0 21.3695 0 21.6441C0 22.1169 1.27017 24.0415 2.28979 25.1136C4.27889 27.2052 6.42545 28.2125 9.11697 28.3174C10.2994 28.3634 10.4035 28.388 10.7798 28.7098C12.0149 29.7662 13.7296 30.7615 15.2552 31.3079C16.5838 31.7837 17.8086 32.0113 19.4954 32.0957L21.0436 32.1732L20.6604 32.3925C20.4497 32.5131 19.5208 33.0887 18.5961 33.6719C17.6716 34.2549 16.6312 34.8572 16.2843 35.0102C15.9375 35.1631 15.6021 35.3272 15.539 35.3748C15.2655 35.5816 13.1638 36.203 12.2792 36.3387C11.3586 36.4798 9.32982 36.4355 8.57225 36.2577C8.33383 36.2017 8.25688 36.2291 8.25688 36.3701C8.25688 36.6804 9.40458 36.8757 11.1812 36.8676C12.8954 36.8598 13.892 36.6679 15.6307 36.0107C16.5091 35.6787 18.781 34.5207 19.276 34.1527C19.8325 33.7389 21.6149 32.8621 22.6491 32.4933C27.7784 30.6638 33.426 31.9421 37.2681 35.8018C37.7763 36.3124 38.1768 36.746 38.1583 36.7656C38.1397 36.7853 37.7388 36.69 37.2675 36.5542C36.1883 36.2431 33.118 36.1095 31.9249 36.3217C29.9865 36.6665 27.2585 38.0238 27.6586 38.4445C27.6973 38.4852 28.0825 38.3323 28.5147 38.1048C30.1907 37.2227 31.3693 36.9351 33.3066 36.9354C34.8008 36.9356 36.0135 37.1423 37.4633 37.6437C39.0735 38.2008 39.5925 38.5183 39.9897 39.1899C41.2378 41.3002 41.8161 42.8391 42.3818 45.5573C42.4233 45.7563 42.4825 46.6795 42.5135 47.6087C42.5634 49.1027 42.5359 49.4686 42.2757 50.7665C41.9548 52.3674 41.3878 54.0389 40.7498 55.2646C39.4694 57.7246 36.976 60.6607 34.9143 62.1363C33.7639 62.9598 31.5023 64.2013 30.3787 64.6261C30.0695 64.7431 29.8165 64.8799 29.8165 64.9301C29.8165 64.9803 32.9774 65.0103 36.8406 64.9967L43.8647 64.972L43.8255 64.2342C43.7806 63.3887 44.0308 62.2175 44.4279 61.4146C44.7534 60.7561 45.5174 58.8475 45.8518 57.8573C46.51 55.9081 46.9851 53.0719 47.0942 50.4411L47.1666 48.6926L48.5259 45.8296C48.8615 45.1229 49.1697 44.4691 49.4075 43.9606C49.8892 43.2078 50.4645 42.4885 51.2285 41.6582C52.6026 40.1649 53.8751 39.1638 56.0617 37.8562C57.7661 36.8368 58.0437 36.599 57.7269 36.4297C57.5085 36.3129 55.4961 37.2967 53.7268 38.3852C51.0394 40.0383 49.0032 41.9705 47.6322 44.1669C47.3606 44.5479 47.1442 44.8343 47.0858 44.8853C46.9532 45.0009 46.915 44.7635 46.8503 43.4212C46.6745 39.7792 47.2063 36.803 48.4111 34.6841C49.3779 32.9843 51.7084 31.0938 53.5047 30.5524C55.658 29.9035 57.8519 29.7759 60.0422 30.1725C61.6796 30.4691 62.0747 30.5803 63.5499 31.1597C64.8938 31.6875 65.0682 31.7459 66.5711 32.1698C68.5261 32.7214 70.6978 32.8569 72.4181 32.5348C73.5083 32.3305 75 31.7565 75 31.5412C75 31.3314 74.8989 31.3448 73.9416 31.6813C72.2696 32.2692 69.8081 32.3201 67.6907 31.8105C66.8573 31.61 65.2967 31.0967 64.7362 30.839C62.1713 29.6596 60.2701 29.1326 57.9128 28.9476C57.5263 28.9174 57.5412 28.9031 58.3142 28.5655C59.5534 28.0242 61.1525 26.9975 61.9198 26.2505L62.6147 25.5739L64.0768 25.5896C65.7156 25.6072 66.9516 25.4159 68.2258 24.9478C69.4339 24.5039 71.1009 23.4755 71.1009 23.1739C71.1009 22.9789 70.8544 23.064 70.2008 23.4847C68.7786 24.4001 66.2463 24.9848 64.3971 24.8249C63.8952 24.7815 63.4687 24.7295 63.4494 24.7091C63.43 24.6888 63.6538 24.2976 63.9466 23.8398C65.1164 22.0099 65.9222 19.7545 66.1937 17.5494C66.3151 16.5625 66.3099 16.4103 66.1482 16.2403C65.9807 16.0642 65.9585 16.1026 65.8854 16.6938C65.557 19.3532 64.552 21.6492 62.7481 23.8615C61.0016 26.0033 59.3189 26.9413 54.5453 28.4338C53.9862 28.6086 52.9933 28.9921 52.3389 29.2861C51.6844 29.5801 51.1284 29.8206 51.1034 29.8206C51.0784 29.8206 51.2516 29.3458 51.4883 28.7654C52.1921 27.0398 52.942 24.5337 53.2209 22.9757L53.3561 22.2206L54.0599 21.8674C55.9274 20.9302 57.8217 18.8978 58.8783 16.6978C59.2993 15.8215 59.8255 14.2237 60.0302 13.2009C60.2786 11.9588 60.3857 10.4059 60.2229 10.4059C60.1508 10.4059 60.0917 10.429 60.0917 10.4575C60.0917 10.9263 59.7689 12.635 59.5013 13.5819C58.8193 15.996 57.4273 18.292 55.8235 19.6481C54.9927 20.3507 53.7369 21.1284 53.6244 21.0101C53.592 20.976 53.6234 20.5704 53.6942 20.1086C53.8728 18.9435 53.8717 12.8158 53.6925 11.3103C53.3983 8.83726 52.6708 5.38036 52.4236 5.28064C52.3341 5.24447 52.2365 5.24049 52.2068 5.27159C52.1601 5.3208 52.3435 6.46361 52.75 8.65734C53.1181 10.643 53.2455 15.6582 52.9907 18.1235C52.4265 23.5794 50.4009 29.2678 47.9073 32.3985C46.6383 33.9916 45.8881 35.5854 45.3289 37.8753L44.9963 39.2376L44.475 38.5386C43.8633 37.7186 43.4229 36.8395 43.0377 35.6691C42.8181 35.002 42.7466 34.4837 42.6963 33.197C42.622 31.296 42.7628 29.8868 43.2347 27.809C43.6857 25.8234 44.2313 24.3249 45.3071 22.1176C46.1456 20.3971 46.2581 20.0529 45.982 20.0529C45.7916 20.0529 44.7279 21.8885 43.8675 23.7016C42.2228 27.1674 41.4406 30.5359 41.5303 33.7673L41.5711 35.2421L40.7261 34.3702C39.1498 32.7438 37.9825 30.8459 37.3632 28.9024C37.1385 28.1973 37.0988 27.8265 37.1 26.4441C37.1016 24.5476 37.3112 23.5921 38.1197 21.7951C38.985 19.8717 39.6705 18.9067 42.1286 16.1523C44.3928 13.615 45.4404 12.2638 45.9284 11.251C46.3458 10.385 46.7739 8.92746 46.9653 7.72084C47.1947 6.27499 47.329 3.05 47.1599 3.05C47.0923 3.05 46.9555 3.01708 46.8557 2.97681C46.7036 2.91542 46.6743 3.01283 46.6743 3.58179C46.6743 4.34402 46.3017 6.89434 46.0561 7.81323C45.471 10.0019 44.7044 11.3176 42.9994 13.0588C41.6385 14.4487 39.2084 16.7367 39.0929 16.7367C38.8984 16.7367 37.6374 14.8377 37.0569 13.6706C36.5786 12.7086 35.6651 10.4549 35.6651 10.2366C35.6651 10.2048 35.9635 10.0115 36.3283 9.80714C37.7557 9.00718 39.2847 7.362 40.1994 5.6423C40.6439 4.80648 41.3343 2.80592 41.4373 2.05515C41.5219 1.43835 41.2249 1.43689 41.1148 2.0536C40.8446 3.56842 39.5382 5.95713 38.2617 7.27057C37.472 8.08311 36.082 9.0606 35.6447 9.11088C35.425 9.13608 35.3759 9.04999 35.2492 8.41617C34.8749 6.54464 34.7948 3.82271 35.05 1.63308C35.1177 1.05161 35.1047 1 34.8906 1C34.6961 1 34.6344 1.12456 34.5177 1.75366Z" />
  </g>
  <defs>
    <filter id="filter0_d_11_2" x="0" y="0" width="81" height="66" filterUnits="userSpaceOnUse" color-interpolation-filters="sRGB">
      <feFlood flood-opacity="0" result="BackgroundImageFix"/>
      <feColorMatrix in="SourceAlpha" type="matrix" values="0 0 0 0 0 0 0 0 0 0 0 0 0 0 0 0 0 0 127 0" result="hardAlpha"/>
      <feOffset dx="5"/>
      <feGaussianBlur stdDeviation="0.5"/>
      <feComposite in2="hardAlpha" operator="out"/>
      <feColorMatrix type="matrix" values="0 0 0 0 0 0 0 0 0 0 0 0 0 0 0 0 0 0 0.25 0"/>
      <feBlend mode="normal" in2="BackgroundImageFix" result="effect1_dropShadow_11_2"/>
      <feBlend mode="normal" in="SourceGraphic" in2="effect1_dropShadow_11_2" result="shape"/>
    </filter>
  </defs>
</svg>

<svg xmlns="http://www.w3.org/2000/svg" viewBox="0 0 75 64" fill="currentColor">
  <path fill-rule="evenodd" d="M27.407 43.486c1.372.08 2.502 1.2 2.663 2.48.646 4.72.646 7.12.08 11.839-.241 1.28-1.37 2.4-2.662 2.48-3.953.24-6.939.4-9.844.4-2.904 0-5.89-.16-9.763-.4-1.29-.08-2.501-1.2-2.663-2.48-.645-4.72-.645-7.12 0-11.84.162-1.279 1.292-2.399 2.583-2.479 7.826-.56 11.7-.56 19.607 0Zm-5.82 8.892a.566.566 0 0 0 0-.985l-5.483-3.138a.574.574 0 0 0-.86.492v6.276c0 .438.477.712.86.493l5.482-3.138Z" clip-rule="evenodd"/>
  <path d="M34.518 1.7c-.236 1.27-.28 5.252-.075 6.791.424 3.19 1.686 6.545 3.316 8.82l.45.628-.51.698c-1.42 1.95-2.42 4.23-2.723 6.202-.2 1.312-.093 3.895.21 5.045.13.495.225.913.21.929-.014.015-.36-.195-.767-.468a35.748 35.748 0 0 0-1.987-1.187c-1.21-.672-1.269-.723-2.04-1.802-1.9-2.658-2.656-5.162-2.656-8.804 0-2.104.19-3.495.726-5.325l.071-.24c.234-.796.288-.98.226-1.05-.019-.02-.048-.031-.086-.045a1.22 1.22 0 0 1-.038-.015c-.213-.086-.47.51-.957 2.213-.524 1.835-.708 3.265-.709 5.501 0 2.881.408 4.852 1.44 6.948.22.448.375.816.343.816-.16 0-1.91-.789-2.843-1.28-1.4-.739-1.905-1.115-3.051-2.272-1.685-1.7-2.704-3.257-3.584-5.473-.405-1.02-1.135-3.621-1.135-4.045 0-.083.193-.247.43-.366 1.733-.868 4.262-3.244 5.403-5.075 1.298-2.084 1.95-3.957 2.274-6.542.05-.395.027-.512-.099-.512-.116 0-.201.27-.294.942-.361 2.605-1.745 5.35-3.762 7.463-1.392 1.458-3.811 3.127-4.097 2.827-.217-.23-.243-4.26-.038-6.107.103-.929.216-1.803.251-1.944.052-.203.005-.267-.229-.314l-.037-.008c-.074-.015-.13-.027-.176-.01-.14.05-.194.366-.413 1.64l-.036.214c-.352 2.056-.383 6.667-.056 8.441.279 1.509.83 3.49 1.238 4.448.181.424.329.788.329.809 0 .085-.951-.323-1.629-.699a13.569 13.569 0 0 1-3.424-2.706c-1.94-2.111-3.035-4.424-3.375-7.128-.057-.452-.13-.633-.256-.633-.244 0-.122 1.076.327 2.894.777 3.149 2.508 5.726 5.203 7.744.8.598 3.05 1.807 3.63 1.948.198.049.405.256.595.597.47.845 1.71 2.39 2.616 3.266 1.274 1.23 2.534 2.05 4.774 3.112 1.117.53 2.068.998 2.112 1.041.044.044-.678.09-1.605.103-.928.012-2.047.079-2.489.147l-.064.01c-1.885.292-2.465.382-3.02.296-.246-.039-.487-.112-.836-.218l-.027-.008c-.594-.18-1.414-.486-1.822-.681-2.571-1.226-5.052-3.947-6.059-6.646-.169-.452-.376-.822-.46-.822-.215 0-.2.098.18 1.167a13.445 13.445 0 0 0 5.734 6.997l.864.518-.857-.004c-.472-.002-1.4-.104-2.062-.227-5.01-.932-8.76-4.594-11.294-11.033-.43-1.09-1.237-3.597-1.373-4.262-.09-.436-.14-.46-.446-.216-.203.163-.196.227.198 1.715 1.12 4.234 2.689 7.625 4.754 10.28l.382.491H8.82c-1.39 0-3.295-.602-4.742-1.497-.993-.614-2.834-2.497-3.547-3.627C.08 21.392 0 21.315 0 21.59c0 .473 1.27 2.397 2.29 3.47 1.989 2.091 4.135 3.098 6.827 3.203 1.182.046 1.287.07 1.663.393 1.235 1.056 2.95 2.051 4.475 2.598 1.329.476 2.554.703 4.24.787l1.549.078-.384.22c-.21.12-1.14.696-2.064 1.279-.924.583-1.965 1.185-2.312 1.338-.346.153-.682.317-.745.365-.274.206-2.375.828-3.26.964-.92.14-2.95.096-3.707-.081-.238-.056-.315-.03-.315.112 0 .31 1.148.505 2.924.497 1.714-.007 2.711-.2 4.45-.857.878-.332 3.15-1.49 3.645-1.858.556-.413 2.339-1.29 3.373-1.659a13.932 13.932 0 0 1 14.62 3.309c.507.51.908.944.89.963-.02.02-.42-.075-.892-.211-1.079-.311-4.149-.445-5.342-.233-1.939.345-4.666 1.703-4.266 2.123.038.041.424-.112.856-.34 1.676-.881 2.854-1.17 4.792-1.169 1.494 0 2.706.207 4.156.709 1.61.557 2.13.874 2.527 1.546 1.248 2.11 1.826 3.649 2.392 6.367.041.2.1 1.122.132 2.051.05 1.494.022 1.86-.238 3.158-.321 1.601-.888 3.273-1.526 4.498-1.28 2.46-3.774 5.396-5.836 6.872-1.15.824-3.412 2.065-4.535 2.49-.31.117-.563.254-.563.304 0 .05 3.161.08 7.025.066l7.024-.024-.04-.738c-.044-.846.206-2.017.603-2.82.325-.658 1.09-2.567 1.424-3.557.658-1.95 1.133-4.785 1.242-7.416l.073-1.749 1.359-2.863c.335-.706.644-1.36.881-1.869.482-.752 1.058-1.472 1.822-2.302 1.374-1.493 2.646-2.494 4.833-3.802 1.704-1.02 1.982-1.257 1.665-1.426-.218-.117-2.23.867-4 1.955-2.688 1.653-4.724 3.585-6.095 5.782-.271.38-.488.667-.546.718-.133.116-.171-.122-.236-1.464-.175-3.642.356-6.618 1.561-8.737.967-1.7 3.297-3.59 5.094-4.132a13.863 13.863 0 0 1 6.537-.38c1.638.297 2.033.408 3.508.988 1.344.527 1.518.586 3.021 1.01 1.955.551 4.127.687 5.847.365 1.09-.205 2.582-.779 2.582-.994 0-.21-.101-.196-1.058.14-1.672.588-4.134.639-6.251.13-.834-.201-2.394-.715-2.955-.972-2.565-1.18-4.466-1.707-6.823-1.892-.387-.03-.372-.044.401-.382 1.24-.541 2.839-1.568 3.606-2.315l.695-.676 1.462.015c1.639.018 2.875-.173 4.149-.641 1.208-.444 2.875-1.473 2.875-1.774 0-.195-.247-.11-.9.31-1.422.916-3.955 1.5-5.804 1.34-.502-.043-.928-.095-.948-.115-.019-.02.205-.412.498-.87 1.17-1.83 1.975-4.085 2.247-6.29.121-.987.116-1.139-.046-1.309-.167-.176-.19-.138-.263.454-.328 2.659-1.333 4.955-3.137 7.167-1.746 2.142-3.43 3.08-8.203 4.573-.559.174-1.552.558-2.206.852-.655.294-1.21.534-1.236.534-.025 0 .149-.474.385-1.055.704-1.725 1.454-4.231 1.733-5.79l.135-.755.704-.353c1.867-.937 3.762-2.97 4.818-5.17.421-.876.947-2.474 1.152-3.496.249-1.242.356-2.795.193-2.795-.072 0-.131.023-.131.051 0 .47-.323 2.178-.59 3.125-.683 2.414-2.075 4.71-3.678 6.066-.831.703-2.087 1.48-2.2 1.362-.032-.034 0-.44.07-.902.179-1.165.178-7.292-.002-8.798-.294-2.473-1.021-5.93-1.268-6.03-.09-.036-.188-.04-.217-.009-.047.05.136 1.192.543 3.386.368 1.986.495 7.001.24 9.466-.564 5.456-2.59 11.145-5.083 14.275-1.269 1.593-2.019 3.187-2.578 5.477l-.333 1.362-.521-.699c-.612-.82-1.052-1.699-1.437-2.87-.22-.666-.291-1.184-.342-2.471-.074-1.901.067-3.31.539-5.388.45-1.986.996-3.484 2.072-5.692.839-1.72.951-2.064.675-2.064-.19 0-1.254 1.835-2.114 3.648-1.645 3.466-2.427 6.835-2.338 10.066l.041 1.475-.845-.872c-1.576-1.626-2.743-3.524-3.363-5.468-.224-.705-.264-1.076-.263-2.458.002-1.897.211-2.852 1.02-4.65.865-1.922 1.55-2.887 4.009-5.642 2.264-2.537 3.311-3.888 3.8-4.901.417-.866.845-2.324 1.036-3.53.23-1.446.364-4.671.195-4.671-.068 0-.204-.033-.304-.073-.152-.062-.182.036-.182.605 0 .762-.372 3.312-.618 4.231-.585 2.189-1.352 3.504-3.057 5.246-1.36 1.39-3.79 3.678-3.906 3.678-.195 0-1.456-1.9-2.036-3.067-.478-.962-1.392-3.215-1.392-3.434 0-.031.299-.225.663-.43 1.428-.799 2.957-2.444 3.871-4.164.445-.836 1.135-2.836 1.238-3.587.085-.617-.212-.618-.322-.002-.27 1.515-1.577 3.904-2.853 5.217-.79.813-2.18 1.79-2.617 1.84-.22.026-.27-.06-.396-.694-.374-1.872-.454-4.593-.199-6.783.068-.582.055-.633-.16-.633-.194 0-.256.124-.372.753Z"/>
</svg>
